src/images/favicon.svg

<?xml version="1.0" encoding="UTF-8" standalone="no"?>
<svg
   xmlns:dc="http://purl.org/dc/elements/1.1/"
   xmlns:cc="http://creativecommons.org/ns#"
   xmlns:rdf="http://www.w3.org/1999/02/22-rdf-syntax-ns#"
   xmlns:svg="http://www.w3.org/2000/svg"
   xmlns="http://www.w3.org/2000/svg"
   xmlns:sodipodi="http://sodipodi.sourceforge.net/DTD/sodipodi-0.dtd"
   xmlns:inkscape="http://www.inkscape.org/namespaces/inkscape"
   sodipodi:docname="favicon.svg"
   inkscape:version="1.0beta2 (2b71d25, 2019-12-03)"
   id="svg8"
   version="1.1"
   viewBox="0 0 8.4666665 8.4666669"
   height="32"
   width="32">
  <defs
     id="defs2" />
  <sodipodi:namedview
     inkscape:window-maximized="0"
     inkscape:window-y="23"
     inkscape:window-x="0"
     inkscape:window-height="791"
     inkscape:window-width="1440"
     inkscape:pagecheckerboard="true"
     units="px"
     showgrid="false"
     inkscape:document-rotation="0"
     inkscape:current-layer="layer1"
     inkscape:document-units="mm"
     inkscape:cy="6.7000593"
     inkscape:cx="18.294907"
     inkscape:zoom="7.9195959"
     inkscape:pageshadow="2"
     inkscape:pageopacity="0.0"
     borderopacity="1.0"
     bordercolor="#666666"
     pagecolor="#ffffff"
     id="base" />
  <metadata
     id="metadata5">
    <rdf:RDF>
      <cc:Work
         rdf:about="">
        <dc:format>image/svg+xml</dc:format>
        <dc:type
           rdf:resource="http://purl.org/dc/dcmitype/StillImage" />
        <dc:title></dc:title>
      </cc:Work>
    </rdf:RDF>
  </metadata>
  <g
     style="opacity:1"
     id="layer1"
     inkscape:groupmode="layer"
     inkscape:label="Layer 1">
    <path
       sodipodi:nodetypes="cccccsccscsccscccscccccccccccccccccscccccccccccccccccscccccccccccccccccccsccccccccccccccccccccccccsccccccccccccsccccccccccccccccccccccccccscsccccccsccc"
       inkscape:connector-curvature="0"
       d="m 3.7218289,1.8520834 -0.046597,0.01997 C 3.6219792,1.8986799 3.4620698,2.011946 3.2022731,2.2051199 L 2.4761738,2.7447019 C 1.8833106,3.1643705 1.4236739,3.4374898 1.1705433,3.5240825 c -0.093287,0.033283 -0.1398927,0.033283 -0.33973263,0.033283 -0.21317201,0 -0.25979665,-0.00656 -0.33307599,-0.03994 -0.0532532,-0.033283 -0.0866301,-0.03994 -0.13322665,-0.026627 -0.0665664,0.01997 -0.0999247,0.073223 -0.0999247,0.1465494 0,0.046596 0.0133133,0.093287 0.0465965,0.1998399 0.0733169,0.2131627 0.18651731,0.3463987 0.37303461,0.4396573 0.11991336,0.05991 0.23315132,0.079973 0.39302336,0.073317 0.206506,-0.013313 0.3863666,-0.06666 0.619518,-0.193174 C 2.003177,3.9837847 2.2762964,3.7706221 2.6360177,3.4109101 2.8425143,3.2044041 2.989073,3.0445322 3.1489449,2.8513488 L 3.2488602,2.7381015 C 3.0308598,3.0606394 2.8087904,3.3804114 2.582727,3.6973427 2.4428343,3.8772034 2.0964357,4.3901307 1.9565524,4.623282 1.6168198,5.1895093 1.4036478,5.7157592 1.3237118,6.1953752 c -0.053253,0.3130873 -0.046596,0.5329159 0.00656,0.6927879 0.093287,0.2597967 0.2797759,0.413012 0.4996046,0.4263346 0.12657,0.00656 0.2131626,-0.01997 0.2398079,-0.073317 0.01997,-0.026627 0.01997,-0.03994 0.01997,-0.153206 0.013313,-0.2065059 0.033283,-0.3663779 0.099925,-0.6128519 L 2.2228651,6.3352303 2.3161518,6.142047 C 2.6692071,5.4359458 3.2087797,4.6032652 3.7616844,3.9038112 4.2679456,3.2776366 4.6942803,2.864634 4.9207656,2.8046773 l 0.01997,-0.00656 -0.013313,0.013313 C 4.6069751,3.1816778 4.3152453,3.5758449 4.0547736,3.9904976 3.5618257,4.7965329 3.2487384,5.5759135 3.1621457,6.2087447 c -0.013313,0.133236 -0.01997,0.3663873 -0.00656,0.459646 0.026627,0.1665286 0.1065907,0.3330666 0.206506,0.4329913 0.08663,0.093287 0.19984,0.1532153 0.3397327,0.1865173 0.1998399,0.053253 0.3797006,-0.01997 0.3797006,-0.1532153 0,-0.033283 -0.00656,-0.046596 -0.046596,-0.1065814 C 3.994989,6.9748496 3.968363,6.8815533 3.954956,6.7949513 l -0.00656,-0.05991 0.03994,-0.119904 C 4.1491667,6.2106761 4.3523631,5.8243844 4.594515,5.4627036 4.9542363,4.923131 5.3272709,4.5034624 5.6270356,4.3036224 5.693602,4.2570259 5.7935736,4.2103356 5.8202189,4.2103356 5.5921398,4.4536219 5.3890558,4.7191845 5.214033,5.0030389 4.8816226,5.5830107 4.6920958,6.2337868 4.6611283,6.901542 c -0.013313,0.1931833 0.013313,0.333076 0.079973,0.4796253 0.079974,0.1731947 0.2464646,0.3397327 0.4263253,0.413012 0.060003,0.01997 0.1398926,0.046597 0.1931833,0.053253 0.1731946,0.026626 0.286442,-0.08663 0.206506,-0.206506 C 5.4688793,7.5067248 5.4027817,7.3517468 5.3739331,7.1879465 5.3539631,7.0880312 5.3473065,6.8948479 5.3606198,6.7816005 5.393903,6.4418679 5.5138351,6.0688333 5.7403204,5.629176 5.9468264,5.22283 6.199957,4.8431294 6.5463557,4.4101381 6.726207,4.1903095 6.7128843,4.2102981 6.7128843,4.1636641 c 0,-0.053253 -0.00656,-0.079973 -0.046597,-0.159872 C 6.6130346,3.8772221 6.5064158,3.7506615 6.3798458,3.6507368 6.2332965,3.5441555 6.1133925,3.5108442 6.0134679,3.5574501 5.8003052,3.6573654 5.2740459,4.1436567 4.8010866,4.6832293 4.6079033,4.9030579 4.3680953,5.1961566 4.3148047,5.2760926 4.661344,4.4484185 5.120915,3.67276 5.6803919,2.9712434 5.8202845,2.7980488 5.8202845,2.7980488 5.8269505,2.7580808 c 0,-0.03994 -0.01997,-0.1199133 -0.053253,-0.1798607 C 5.7347888,2.5044345 5.6878173,2.4352242 5.6338047,2.3717142 5.5538312,2.285084 5.4739327,2.2251648 5.3939968,2.1785308 5.2940721,2.1252777 5.2074701,2.118621 5.1342001,2.1519043 5.0009641,2.2119078 4.7678221,2.4183669 4.3947782,2.7980676 4.0245937,3.1879407 3.6625754,3.5854924 3.3089669,3.9904601 3.609191,3.4648383 3.9269004,2.9494078 4.2615515,2.4450123 l 0.099925,-0.1532154 c 0.013313,-0.033283 0.00656,-0.08663 -0.00656,-0.119904 C 4.3216301,2.1118894 4.2150206,2.0253436 4.08846,1.965387 4.0018299,1.9254471 3.841986,1.8721002 3.7753727,1.8588056 Z m 3.6571136,2.1383205 c -0.066566,0 -0.1598719,0.033283 -0.2131626,0.073317 -0.01997,0.01997 -0.033283,0.05991 -0.033283,0.08663 l 0.03994,0.046597 0.08663,0.119904 0.079974,0.1065813 0.01997,0.026627 -0.073317,0.00656 C 7.0525419,4.476592 6.8194,4.5831827 6.612894,4.7497207 c -0.25314,0.206506 -0.492948,0.572884 -0.5462386,0.859326 -0.01997,0.06666 -0.01997,0.2331419 0,0.3130873 0.026627,0.1532059 0.1132473,0.3264099 0.246474,0.4796159 l 0.1865173,0.1865173 c 0.2131626,0.1931833 0.2864419,0.2797853 0.3197439,0.3663873 0.01997,0.053253 0.01997,0.153206 0,0.233142 -0.046596,0.1798606 -0.19984,0.366378 -0.3197439,0.3930233 -0.033283,0.00656 -0.119904,-0.00656 -0.159872,-0.026627 -0.03994,-0.013313 -0.08663,-0.05991 -0.1065813,-0.093287 l -0.01997,-0.066566 v -0.079973 l 0.033283,-0.06666 c 0.01997,-0.046596 0.08663,-0.1132474 0.1199039,-0.119904 0.026627,-0.00656 0.01997,-0.00656 0.08663,0.026627 0.03994,0.01997 0.079974,0.026627 0.1065907,0.00656 l 0.033283,-0.03994 C 6.606227,7.0877668 6.606227,7.0744528 6.606227,7.0211348 6.606227,6.9478178 6.592914,6.9078875 6.55963,6.8346081 6.513034,6.7413211 6.3997486,6.6614135 6.2931673,6.6347682 6.2266013,6.6214552 6.099984,6.6282082 6.0400367,6.6413282 5.90681,6.6746112 5.7935627,6.7678889 5.7202834,6.9144382 c -0.066566,0.12657 -0.093287,0.2398173 -0.08663,0.3863666 0.00656,0.1065814 0.013313,0.1532154 0.046597,0.2264853 0.093287,0.1931834 0.286442,0.32641 0.5195933,0.3530553 h 0.2731201 c 0.2664533,-0.026622 0.4996046,-0.1198993 0.65282,-0.2731147 0.073317,-0.06666 0.1065813,-0.1132379 0.1465493,-0.1998399 0.073317,-0.1465494 0.099925,-0.32641 0.079974,-0.492948 C 7.3389933,6.8412197 7.3190234,6.7878822 7.2857401,6.7146028 7.232487,6.6146875 7.19911,6.5747195 7.0126208,6.3881928 6.8727375,6.2483096 6.8194469,6.1883529 6.7927922,6.1483849 6.7461957,6.0818184 6.7128187,6.0018356 6.6928769,5.9218996 c -0.013313,-0.060004 -0.013313,-0.173204 0,-0.25314 0.013313,-0.099915 0.08663,-0.246474 0.1865173,-0.406346 0.079974,-0.1132473 0.119904,-0.166538 0.206506,-0.246474 0.1532153,-0.1598719 0.3064213,-0.2398079 0.4529706,-0.2398079 0.06666,-0.00656 0.08663,0.00656 0.1132473,0.053253 0.033283,0.079973 -0.013313,0.2597967 -0.1398927,0.5129273 -0.1132379,0.2331513 -0.2930986,0.5195933 -0.4130026,0.659486 -0.08663,0.099915 -0.1065813,0.1532059 -0.079974,0.2064966 0.013313,0.03994 0.046597,0.053253 0.119904,0.060004 0.1065818,0.00656 0.2331518,-0.026627 0.3730351,-0.093287 0.213172,-0.099925 0.3130873,-0.206506 0.4263347,-0.446314 0.1132473,-0.2264854 0.2131626,-0.52625 0.2331513,-0.7061107 v -0.12657 C 8.1450473,4.6961769 8.0584266,4.5829296 7.8719093,4.5096596 c -0.08663,-0.033283 -0.08663,-0.033283 -0.1465494,0 -0.079973,0.053253 -0.1065813,0.05991 -0.1598719,0.05991 -0.046596,-0.00656 -0.093287,-0.026627 -0.12657,-0.046597 -0.00375,-0.0075 -0.00469,-0.010313 -0.00281,-0.010876 9.38e-5,7.781e-4 7.875e-4,0.00188 0.00281,0.00375 0,-0.00188 -7.126e-4,-0.00375 -0.00188,-0.00469 0.00281,2.625e-4 0.0075,0.00188 0.01472,0.00469 l 0.053253,0.01997 c 0.033283,0 0.03994,0 0.08663,-0.026626 l 0.1598813,-0.093287 c 0.1865173,-0.119904 0.2531306,-0.1465493 0.3463893,-0.1465493 0.046596,0 0.060004,0 0.073317,-0.013313 0.03994,-0.026627 0.03994,-0.08663 0.00656,-0.153206 -0.01997,-0.03994 -0.03994,-0.05991 -0.099915,-0.079973 -0.033276,-0.013314 -0.046589,-0.013314 -0.1532081,-0.013314 -0.1123285,-0.00938 -0.2239539,0.024283 -0.3130873,0.093287 l -0.01997,0.01997 -0.046597,-0.046597 -0.08663,-0.06666 c -0.033283,-0.01997 -0.03994,-0.01997 -0.079973,-0.01997 z m 0.060004,0.5262499 0.00656,0.00656 c 0.013313,0 0.00656,-0.00656 -0.00656,-0.00656 z"
       style="fill:#ffffff;stroke:#ffffff;stroke-width:0.42333333;stroke-miterlimit:4;stroke-dasharray:none;stroke-opacity:1;stroke-linejoin:round;stroke-linecap:round"
       id="path983" />
    <path
       id="path854"
       style="stroke-width:0.00666141"
       d="m 3.7218289,1.8520834 -0.046597,0.01997 C 3.6219792,1.8986799 3.4620698,2.011946 3.2022731,2.2051199 L 2.4761738,2.7447019 C 1.8833106,3.1643705 1.4236739,3.4374898 1.1705433,3.5240825 c -0.093287,0.033283 -0.1398927,0.033283 -0.33973263,0.033283 -0.21317201,0 -0.25979665,-0.00656 -0.33307599,-0.03994 -0.0532532,-0.033283 -0.0866301,-0.03994 -0.13322665,-0.026627 -0.0665664,0.01997 -0.0999247,0.073223 -0.0999247,0.1465494 0,0.046596 0.0133133,0.093287 0.0465965,0.1998399 0.0733169,0.2131627 0.18651731,0.3463987 0.37303461,0.4396573 0.11991336,0.05991 0.23315132,0.079973 0.39302336,0.073317 0.206506,-0.013313 0.3863666,-0.06666 0.619518,-0.193174 C 2.003177,3.9837847 2.2762964,3.7706221 2.6360177,3.4109101 2.8425143,3.2044041 2.989073,3.0445322 3.1489449,2.8513488 L 3.2488602,2.7381015 C 3.0308598,3.0606394 2.8087904,3.3804114 2.582727,3.6973427 2.4428343,3.8772034 2.0964357,4.3901307 1.9565524,4.623282 1.6168198,5.1895093 1.4036478,5.7157592 1.3237118,6.1953752 c -0.053253,0.3130873 -0.046596,0.5329159 0.00656,0.6927879 0.093287,0.2597967 0.2797759,0.413012 0.4996046,0.4263346 0.12657,0.00656 0.2131626,-0.01997 0.2398079,-0.073317 0.01997,-0.026627 0.01997,-0.03994 0.01997,-0.153206 0.013313,-0.2065059 0.033283,-0.3663779 0.099925,-0.6128519 L 2.2228651,6.3352303 2.3161518,6.142047 C 2.6692071,5.4359458 3.2087797,4.6032652 3.7616844,3.9038112 4.2679456,3.2776366 4.6942803,2.864634 4.9207656,2.8046773 l 0.01997,-0.00656 -0.013313,0.013313 C 4.6069751,3.1816778 4.3152453,3.5758449 4.0547736,3.9904976 3.5618257,4.7965329 3.2487384,5.5759135 3.1621457,6.2087447 c -0.013313,0.133236 -0.01997,0.3663873 -0.00656,0.459646 0.026627,0.1665286 0.1065907,0.3330666 0.206506,0.4329913 0.08663,0.093287 0.19984,0.1532153 0.3397327,0.1865173 0.1998399,0.053253 0.3797006,-0.01997 0.3797006,-0.1532153 0,-0.033283 -0.00656,-0.046596 -0.046596,-0.1065814 C 3.994989,6.9748496 3.968363,6.8815533 3.954956,6.7949513 l -0.00656,-0.05991 0.03994,-0.119904 C 4.1491667,6.2106761 4.3523631,5.8243844 4.594515,5.4627036 4.9542363,4.923131 5.3272709,4.5034624 5.6270356,4.3036224 5.693602,4.2570259 5.7935736,4.2103356 5.8202189,4.2103356 5.5921398,4.4536219 5.3890558,4.7191845 5.214033,5.0030389 4.8816226,5.5830107 4.6920958,6.2337868 4.6611283,6.901542 c -0.013313,0.1931833 0.013313,0.333076 0.079973,0.4796253 0.079974,0.1731947 0.2464646,0.3397327 0.4263253,0.413012 0.060003,0.01997 0.1398926,0.046597 0.1931833,0.053253 0.1731946,0.026626 0.286442,-0.08663 0.206506,-0.206506 C 5.4688793,7.5067248 5.4027817,7.3517468 5.3739331,7.1879465 5.3539631,7.0880312 5.3473065,6.8948479 5.3606198,6.7816005 5.393903,6.4418679 5.5138351,6.0688333 5.7403204,5.629176 5.9468264,5.22283 6.199957,4.8431294 6.5463557,4.4101381 6.726207,4.1903095 6.7128843,4.2102981 6.7128843,4.1636641 c 0,-0.053253 -0.00656,-0.079973 -0.046597,-0.159872 C 6.6130346,3.8772221 6.5064158,3.7506615 6.3798458,3.6507368 6.2332965,3.5441555 6.1133925,3.5108442 6.0134679,3.5574501 5.8003052,3.6573654 5.2740459,4.1436567 4.8010866,4.6832293 4.6079033,4.9030579 4.3680953,5.1961566 4.3148047,5.2760926 4.661344,4.4484185 5.120915,3.67276 5.6803919,2.9712434 5.8202845,2.7980488 5.8202845,2.7980488 5.8269505,2.7580808 c 0,-0.03994 -0.01997,-0.1199133 -0.053253,-0.1798607 C 5.7347888,2.5044345 5.6878173,2.4352242 5.6338047,2.3717142 5.5538312,2.285084 5.4739327,2.2251648 5.3939968,2.1785308 5.2940721,2.1252777 5.2074701,2.118621 5.1342001,2.1519043 5.0009641,2.2119078 4.7678221,2.4183669 4.3947782,2.7980676 4.0245937,3.1879407 3.6625754,3.5854924 3.3089669,3.9904601 3.609191,3.4648383 3.9269004,2.9494078 4.2615515,2.4450123 l 0.099925,-0.1532154 c 0.013313,-0.033283 0.00656,-0.08663 -0.00656,-0.119904 C 4.3216301,2.1118894 4.2150206,2.0253436 4.08846,1.965387 4.0018299,1.9254471 3.841986,1.8721002 3.7753727,1.8588056 Z m 3.6571136,2.1383205 c -0.066566,0 -0.1598719,0.033283 -0.2131626,0.073317 -0.01997,0.01997 -0.033283,0.05991 -0.033283,0.08663 l 0.03994,0.046597 0.08663,0.119904 0.079974,0.1065813 0.01997,0.026627 -0.073317,0.00656 C 7.0525419,4.476592 6.8194,4.5831827 6.612894,4.7497207 c -0.25314,0.206506 -0.492948,0.572884 -0.5462386,0.859326 -0.01997,0.06666 -0.01997,0.2331419 0,0.3130873 0.026627,0.1532059 0.1132473,0.3264099 0.246474,0.4796159 l 0.1865173,0.1865173 c 0.2131626,0.1931833 0.2864419,0.2797853 0.3197439,0.3663873 0.01997,0.053253 0.01997,0.153206 0,0.233142 -0.046596,0.1798606 -0.19984,0.366378 -0.3197439,0.3930233 -0.033283,0.00656 -0.119904,-0.00656 -0.159872,-0.026627 -0.03994,-0.013313 -0.08663,-0.05991 -0.1065813,-0.093287 l -0.01997,-0.066566 v -0.079973 l 0.033283,-0.06666 c 0.01997,-0.046596 0.08663,-0.1132474 0.1199039,-0.119904 0.026627,-0.00656 0.01997,-0.00656 0.08663,0.026627 0.03994,0.01997 0.079974,0.026627 0.1065907,0.00656 l 0.033283,-0.03994 C 6.606227,7.0877668 6.606227,7.0744528 6.606227,7.0211348 6.606227,6.9478178 6.592914,6.9078875 6.55963,6.8346081 6.513034,6.7413211 6.3997486,6.6614135 6.2931673,6.6347682 6.2266013,6.6214552 6.099984,6.6282082 6.0400367,6.6413282 5.90681,6.6746112 5.7935627,6.7678889 5.7202834,6.9144382 c -0.066566,0.12657 -0.093287,0.2398173 -0.08663,0.3863666 0.00656,0.1065814 0.013313,0.1532154 0.046597,0.2264853 0.093287,0.1931834 0.286442,0.32641 0.5195933,0.3530553 h 0.2731201 c 0.2664533,-0.026622 0.4996046,-0.1198993 0.65282,-0.2731147 0.073317,-0.06666 0.1065813,-0.1132379 0.1465493,-0.1998399 0.073317,-0.1465494 0.099925,-0.32641 0.079974,-0.492948 C 7.3389933,6.8412197 7.3190234,6.7878822 7.2857401,6.7146028 7.232487,6.6146875 7.19911,6.5747195 7.0126208,6.3881928 6.8727375,6.2483096 6.8194469,6.1883529 6.7927922,6.1483849 6.7461957,6.0818184 6.7128187,6.0018356 6.6928769,5.9218996 c -0.013313,-0.060004 -0.013313,-0.173204 0,-0.25314 0.013313,-0.099915 0.08663,-0.246474 0.1865173,-0.406346 0.079974,-0.1132473 0.119904,-0.166538 0.206506,-0.246474 0.1532153,-0.1598719 0.3064213,-0.2398079 0.4529706,-0.2398079 0.06666,-0.00656 0.08663,0.00656 0.1132473,0.053253 0.033283,0.079973 -0.013313,0.2597967 -0.1398927,0.5129273 -0.1132379,0.2331513 -0.2930986,0.5195933 -0.4130026,0.659486 -0.08663,0.099915 -0.1065813,0.1532059 -0.079974,0.2064966 0.013313,0.03994 0.046597,0.053253 0.119904,0.060004 0.1065818,0.00656 0.2331518,-0.026627 0.3730351,-0.093287 0.213172,-0.099925 0.3130873,-0.206506 0.4263347,-0.446314 0.1132473,-0.2264854 0.2131626,-0.52625 0.2331513,-0.7061107 v -0.12657 C 8.1450473,4.6961769 8.0584266,4.5829296 7.8719093,4.5096596 c -0.08663,-0.033283 -0.08663,-0.033283 -0.1465494,0 -0.079973,0.053253 -0.1065813,0.05991 -0.1598719,0.05991 -0.046596,-0.00656 -0.093287,-0.026627 -0.12657,-0.046597 -0.00375,-0.0075 -0.00469,-0.010313 -0.00281,-0.010876 9.38e-5,7.781e-4 7.875e-4,0.00188 0.00281,0.00375 0,-0.00188 -7.126e-4,-0.00375 -0.00188,-0.00469 0.00281,2.625e-4 0.0075,0.00188 0.01472,0.00469 l 0.053253,0.01997 c 0.033283,0 0.03994,0 0.08663,-0.026626 l 0.1598813,-0.093287 c 0.1865173,-0.119904 0.2531306,-0.1465493 0.3463893,-0.1465493 0.046596,0 0.060004,0 0.073317,-0.013313 0.03994,-0.026627 0.03994,-0.08663 0.00656,-0.153206 -0.01997,-0.03994 -0.03994,-0.05991 -0.099915,-0.079973 -0.033276,-0.013314 -0.046589,-0.013314 -0.1532081,-0.013314 -0.1123285,-0.00938 -0.2239539,0.024283 -0.3130873,0.093287 l -0.01997,0.01997 -0.046597,-0.046597 -0.08663,-0.06666 c -0.033283,-0.01997 -0.03994,-0.01997 -0.079973,-0.01997 z m 0.060004,0.5262499 0.00656,0.00656 c 0.013313,0 0.00656,-0.00656 -0.00656,-0.00656 z"
       inkscape:connector-curvature="0"
       sodipodi:nodetypes="cccccsccscsccscccscccccccccccccccccscccccccccccccccccscccccccccccccccccccsccccccccccccccccccccccccsccccccccccccsccccccccccccccccccccccccccscsccccccsccc" />
    <circle
       r="1.1426654"
       cy="1.5874997"
       cx="1.5874997"
       id="path856"
       style="opacity:1;fill:#ff0000;stroke:#ffffff;stroke-width:0.360502;stroke-miterlimit:4;stroke-dasharray:none;stroke-opacity:1" />
  </g>
</svg>

<svg xmlns="http://www.w3.org/2000/svg" viewBox="0 0 8.47 8.47" height="32" width="32"><path d="M3.72 1.85l-.04.02a5.7 5.7 0 00-.48.34l-.72.53c-.6.42-1.06.7-1.3.78-.1.04-.15.04-.35.04-.21 0-.26 0-.33-.04-.06-.04-.09-.04-.14-.03-.06.02-.1.07-.1.15l.05.2a.7.7 0 00.37.44c.12.06.24.08.4.07.2-.01.38-.07.62-.2.3-.17.58-.38.94-.74.2-.2.35-.37.5-.56l.1-.11c-.2.32-.43.64-.66.96-.14.18-.48.69-.62.92a4.6 4.6 0 00-.64 1.58c-.05.3-.04.53.01.69.1.26.28.41.5.42.13.01.21-.02.24-.07.02-.03.02-.04.02-.15.01-.2.03-.37.1-.61l.03-.14.1-.2c.35-.7.89-1.54 1.44-2.24.5-.62.93-1.04 1.16-1.1h.02l-.01.01c-.32.37-.61.77-.88 1.18-.49.8-.8 1.59-.89 2.22-.01.13-.02.37 0 .46.02.16.1.33.2.43.09.1.2.15.34.19.2.05.38-.02.38-.16 0-.03 0-.04-.05-.1a.57.57 0 01-.08-.24v-.05l.04-.12A6.17 6.17 0 015.63 4.3a.6.6 0 01.19-.09 4.21 4.21 0 00-1.16 2.7.86.86 0 00.5.9c.07 0 .15.03.2.04.17.02.29-.09.2-.2-.1-.14-.16-.3-.19-.46-.02-.1-.02-.3 0-.4.02-.35.14-.72.37-1.16.2-.4.46-.79.8-1.22.19-.22.17-.2.17-.25 0-.05 0-.08-.04-.16a.95.95 0 00-.29-.35c-.15-.1-.27-.14-.37-.1a9.7 9.7 0 00-1.7 1.72c.35-.82.81-1.6 1.37-2.3.14-.17.14-.17.15-.21a.45.45 0 00-.06-.18 1.14 1.14 0 00-.14-.2 1.02 1.02 0 00-.24-.2c-.1-.05-.18-.06-.26-.03-.13.06-.36.27-.74.65-.37.39-.73.79-1.08 1.19.3-.53.62-1.04.95-1.54l.1-.16a.19.19 0 000-.12.66.66 0 00-.27-.2c-.09-.04-.25-.1-.31-.11zM7.38 4a.41.41 0 00-.21.07.14.14 0 00-.04.09l.04.05.09.12.08.1.02.03h-.07c-.24.03-.47.13-.68.3-.25.2-.49.57-.54.86a.82.82 0 000 .31c.02.16.11.33.24.48l.19.19c.21.2.29.28.32.36.02.06.02.16 0 .24-.05.18-.2.36-.32.4l-.16-.04a.24.24 0 01-.1-.09L6.2 7.4v-.08l.04-.06c.02-.05.08-.12.12-.12l.08.02c.04.02.08.03.11.01l.03-.04c.02-.03.02-.05.02-.1a.39.39 0 00-.05-.19.43.43 0 00-.27-.2.8.8 0 00-.25.01.5.5 0 00-.32.27.7.7 0 00-.09.4c.01.1.02.14.05.22.1.19.29.32.52.35h.27c.27-.03.5-.12.66-.27.07-.07.1-.12.14-.2.08-.15.1-.33.08-.5a.78.78 0 00-.06-.2c-.06-.1-.1-.14-.28-.32-.14-.14-.2-.2-.22-.24a.7.7 0 01-.1-.23.8.8 0 010-.25c.02-.1.09-.25.19-.4.08-.12.12-.17.2-.25.16-.16.31-.24.46-.24.07-.01.09 0 .11.05.04.08-.01.26-.14.51-.11.24-.3.52-.41.66-.09.1-.1.16-.08.2.01.05.05.06.12.07.1 0 .23-.03.37-.1.22-.1.32-.2.43-.44.11-.23.21-.53.23-.7V4.9c-.02-.2-.11-.32-.3-.39-.08-.03-.08-.03-.14 0-.08.05-.11.06-.16.06a.36.36 0 01-.13-.05s0 0 0 0 0 0 0 0 0 0 0 0h.01l.06.02c.03 0 .03 0 .08-.03l.16-.1c.19-.11.25-.14.35-.14l.07-.01c.04-.03.04-.1 0-.16-.01-.04-.03-.06-.1-.08l-.15-.01a.45.45 0 00-.3.1l-.03.01-.04-.04-.1-.07c-.02-.02-.03-.02-.07-.02zm.06.53h0c.02 0 .01 0 0 0z" fill="#fff" stroke="#fff" stroke-width=".42" stroke-linejoin="round" stroke-linecap="round"/><path d="M3.72 1.85l-.04.02a5.7 5.7 0 00-.48.34l-.72.53c-.6.42-1.06.7-1.3.78-.1.04-.15.04-.35.04-.21 0-.26 0-.33-.04-.06-.04-.09-.04-.14-.03-.06.02-.1.07-.1.15l.05.2a.7.7 0 00.37.44c.12.06.24.08.4.07.2-.01.38-.07.62-.2.3-.17.58-.38.94-.74.2-.2.35-.37.5-.56l.1-.11c-.2.32-.43.64-.66.96-.14.18-.48.69-.62.92a4.6 4.6 0 00-.64 1.58c-.05.3-.04.53.01.69.1.26.28.41.5.42.13.01.21-.02.24-.07.02-.03.02-.04.02-.15.01-.2.03-.37.1-.61l.03-.14.1-.2c.35-.7.89-1.54 1.44-2.24.5-.62.93-1.04 1.16-1.1h.02l-.01.01c-.32.37-.61.77-.88 1.18-.49.8-.8 1.59-.89 2.22-.01.13-.02.37 0 .46.02.16.1.33.2.43.09.1.2.15.34.19.2.05.38-.02.38-.16 0-.03 0-.04-.05-.1a.57.57 0 01-.08-.24v-.05l.04-.12A6.17 6.17 0 015.63 4.3a.6.6 0 01.19-.09 4.21 4.21 0 00-1.16 2.7.86.86 0 00.5.9c.07 0 .15.03.2.04.17.02.29-.09.2-.2-.1-.14-.16-.3-.19-.46-.02-.1-.02-.3 0-.4.02-.35.14-.72.37-1.16.2-.4.46-.79.8-1.22.19-.22.17-.2.17-.25 0-.05 0-.08-.04-.16a.95.95 0 00-.29-.35c-.15-.1-.27-.14-.37-.1a9.7 9.7 0 00-1.7 1.72c.35-.82.81-1.6 1.37-2.3.14-.17.14-.17.15-.21a.45.45 0 00-.06-.18 1.14 1.14 0 00-.14-.2 1.02 1.02 0 00-.24-.2c-.1-.05-.18-.06-.26-.03-.13.06-.36.27-.74.65-.37.39-.73.79-1.08 1.19.3-.53.62-1.04.95-1.54l.1-.16a.19.19 0 000-.12.66.66 0 00-.27-.2c-.09-.04-.25-.1-.31-.11zM7.38 4a.41.41 0 00-.21.07.14.14 0 00-.04.09l.04.05.09.12.08.1.02.03h-.07c-.24.03-.47.13-.68.3-.25.2-.49.57-.54.86a.82.82 0 000 .31c.02.16.11.33.24.48l.19.19c.21.2.29.28.32.36.02.06.02.16 0 .24-.05.18-.2.36-.32.4l-.16-.04a.24.24 0 01-.1-.09L6.2 7.4v-.08l.04-.06c.02-.05.08-.12.12-.12l.08.02c.04.02.08.03.11.01l.03-.04c.02-.03.02-.05.02-.1a.39.39 0 00-.05-.19.43.43 0 00-.27-.2.8.8 0 00-.25.01.5.5 0 00-.32.27.7.7 0 00-.09.4c.01.1.02.14.05.22.1.19.29.32.52.35h.27c.27-.03.5-.12.66-.27.07-.07.1-.12.14-.2.08-.15.1-.33.08-.5a.78.78 0 00-.06-.2c-.06-.1-.1-.14-.28-.32-.14-.14-.2-.2-.22-.24a.7.7 0 01-.1-.23.8.8 0 010-.25c.02-.1.09-.25.19-.4.08-.12.12-.17.2-.25.16-.16.31-.24.46-.24.07-.01.09 0 .11.05.04.08-.01.26-.14.51-.11.24-.3.52-.41.66-.09.1-.1.16-.08.2.01.05.05.06.12.07.1 0 .23-.03.37-.1.22-.1.32-.2.43-.44.11-.23.21-.53.23-.7V4.9c-.02-.2-.11-.32-.3-.39-.08-.03-.08-.03-.14 0-.08.05-.11.06-.16.06a.36.36 0 01-.13-.05h.01l.06.02c.03 0 .03 0 .08-.03l.16-.1c.19-.11.25-.14.35-.14l.07-.01c.04-.03.04-.1 0-.16-.01-.04-.03-.06-.1-.08l-.15-.01a.45.45 0 00-.3.1l-.03.01-.04-.04-.1-.07c-.02-.02-.03-.02-.07-.02zm.06.53c.02 0 .01 0 0 0z"/><circle r="1.14" cy="1.59" cx="1.59" fill="red" stroke="#fff" stroke-width=".36"/></svg>
